X: 144
T:Roger Simmons' Breakdown
R:Reel
C:Emile Benoit
M:C|
L:1/8
Z:Gerry Strong
K:C
DE|:FEFG AGFG|Adcd edcd|eage dfed|cAGE FDDE|FEFG AGFG|Adcd edcd|eage dfe
d|1cAGE D2 DE:|2cAGE D2 A2|
K:D
|:defg afdf|afdf a2 gf|efga bgeg|bgeg b2 ge|defg afdf|afdf a2 ga|bgaf gf
ed |1BAGE D2 A2:|BAGE D4||
<end>
<start>
